packages/kaspersky-hexa-ui-icons/src/iconsSVGs/64x42/FlagSr.svg

<svg xmlns="http://www.w3.org/2000/svg" width="64" height="42" fill="none" viewBox="0 0 64 42"><g clip-path="url(#a)"><rect width="64" height="42" fill="#fff" rx="5"/><path fill="#43924c" fill-rule="evenodd" d="M0 8.4h64V0H0zM0 42h64v-8.4H0z" clip-rule="evenodd"/><path fill="#cd153a" fill-rule="evenodd" d="M0 27.9999h64v-14H0z" clip-rule="evenodd"/><path fill="#f5d24b" fill-rule="evenodd" d="m31.9999 24.57-4.1145 2.7931 1.3849-4.7763-3.9278-3.05 4.9704-.1587 1.687-4.6781 1.6869 4.6781 4.9705.1587-3.9279 3.05 1.385 4.7763z" clip-rule="evenodd"/></g><defs><clipPath id="a"><rect width="64" height="42" fill="#fff" rx="5"/></clipPath></defs></svg>

<svg width="64" height="42" viewBox="0 0 64 42" fill="none" xmlns="http://www.w3.org/2000/svg">
<g clip-path="url(#clip0_37941_2348)">
<rect width="64" height="42" rx="5" fill="white"/>
<path fill-rule="evenodd" clip-rule="evenodd" d="M0 8.4H64V0H0V8.4Z" fill="#43924C"/>
<path fill-rule="evenodd" clip-rule="evenodd" d="M0 42H64V33.6H0V42Z" fill="#43924C"/>
<path fill-rule="evenodd" clip-rule="evenodd" d="M0 27.9999H64V13.9999H0V27.9999Z" fill="#CD153A"/>
<path fill-rule="evenodd" clip-rule="evenodd" d="M31.9999 24.57L27.8854 27.3631L29.2703 22.5868L25.3425 19.5368L30.3129 19.3781L31.9999 14.7L33.6868 19.3781L38.6573 19.5368L34.7294 22.5868L36.1144 27.3631L31.9999 24.57Z" fill="#F5D24B"/>
</g>
<defs>
<clipPath id="clip0_37941_2348">
<rect width="64" height="42" rx="5" fill="white"/>
</clipPath>
</defs>
</svg>
